resources/svg/twitch.svg

<svg width="15" height="15" viewBox="0 0 15 15" fill="none" xmlns="http://www.w3.org/2000/svg">
<path fill-rule="evenodd" clip-rule="evenodd" d="M0.5 0C0.223858 0 0 0.223858 0 0.5V11.5C0 11.7761 0.223858 12 0.5 12H2.5V14.5C2.5 14.6953 2.61367 14.8727 2.79107 14.9543C2.96847 15.0358 3.17714 15.0067 3.3254 14.8796L6.68496 12H11.5C11.6326 12 11.7598 11.9473 11.8536 11.8536L14.8536 8.85355C14.9473 8.75979 15 8.63261 15 8.5V0.5C15 0.223858 14.7761 0 14.5 0H0.5ZM10 8V3H11V8H10ZM7 3V8H8V3H7Z" fill="black"/>
</svg>

<svg viewBox="0 0 15 15" fill="none" xmlns="http://www.w3.org/2000/svg" fill="currentColor"><path fill-rule="evenodd" clip-rule="evenodd" d="M.5 0a.5.5 0 00-.5.5v11a.5.5 0 00.5.5h2v2.5a.5.5 0 00.825.38L6.685 12H11.5a.5.5 0 00.354-.146l3-3A.5.5 0 0015 8.5v-8a.5.5 0 00-.5-.5H.5zM10 8V3h1v5h-1zM7 3v5h1V3H7z" fill="currentColor"/></svg>
